!!!COM: Corelli, Arcangelo
!!!OTL: 
!!!ONM: Opus 3, No. 5
!!!OMV: 4
!!!CDT: 1653/2/17/-1713/1/8/
!!!OCY: Italia
**kern	**kern	**kern	**kern
*clefC	*clefC	*clefG	*clefG
*k[]	*k[]	*k[]	*k[]
*a:	*a:	*a:	*a:
*M12/8	*M12/8	*M12/8	*M12/8
=1	=1	=1	=1
4.D	4.D	1.r	8dd
.	.	.	8ff
.	.	.	8dd
4.C#	4.C#	.	8ee
.	.	.	8gg
.	.	.	8ee
4.D	4.D	.	8ff
.	.	.	8aa
.	.	.	8ff
4.BB-	4.BB-	.	8gg
.	.	.	8bb-
.	.	.	8cc#
=2	=2	=2	=2
4.GG	4.GG	1.r	8dd
.	.	.	8ee
.	.	.	8ff
4.AA	4.AA	.	4.ee
4.DD	4.DD	.	8dd
.	.	.	8aa
.	.	.	8gg
4.r	4.r	.	8ff
.	.	.	8ee
.	.	.	8dd
=3	=3	=3	=3
4.A	4.A	8a	4.cc
.	.	8cc	.
.	.	8a	.
4.G#	4.G#	8b	4.b
.	.	8dd	.
.	.	8b	.
4.A	4.A	8cc	4e
.	.	8ee	.
.	.	8cc	8ee
4.F	4.F	8dd	8a
.	.	8ff	8dd
.	.	8g#	8b
=4	=4	=4	=4
4.D	4.D	8a	8cc
.	.	8b	8b
.	.	8cc	8a
4.E	4.E	4.b	4.g#
2.AA	4.AA	4.a	8aa
.	.	.	8ee
.	.	.	8aa
.	4.r	4.r	8gg
.	.	.	8ee
.	.	.	8gg
=5	=5	=5	=5
2.AA	4.AA	8aa	8ff
.	.	8ff	8dd
.	.	8aa	8ff
.	4.r	8gg	8ee
.	.	8ee	8cc#
.	.	8gg	8ee
2.AA	4.AA	8ff	8aa
.	.	8dd	8ff
.	.	8ff	8aa
.	4.r	8ee	8gg
.	.	8cc#	8ee
.	.	8ee	8gg
=6	=6	=6	=6
4.D	8D	8ff	4a
.	8F	8aa	.
.	8D	8ff	8dd
4.E	8E	8gg	4cc#
.	8G	8bb-	.
.	8E	8gg	8ee
4.F	8F	4.aa	4dd
.	8A	.	.
.	8F	.	8aa
8G	8G	8dd	4.bb-
8B-	8B-	8gg	.
8C#	8C#	8ee	.
=7	=7	=7	=7
8D	8D	8ff	8aa
8E	8E	8ee	8gg
8F	8F	8dd	8ff
4.AA	4.AA	4.cc#	4.ee
4.D	4.D	8dd	4.dd
.	.	8ff	.
.	.	8dd	.
4.d	4.d	4.aa	8ff
.	.	.	8aa
.	.	.	8ff
=8	=8	=8	=8
4.c	4.c	8ee	4.ee
.	.	8aa	.
.	.	8ee	.
4.C	4.C	4.a	8ee
.	.	.	8aa
.	.	.	8a
2.BB-	2.BB-	8aa	8dd
.	.	8gg	8ee
.	.	8ff	8ff
.	.	4gg	4ee
.	.	8aa	8dd
=9	=9	=9	=9
2.AA	2.AA	2.aa	2.cc#
4.A	2.r	2.r	8a
.	.	.	8cc
.	.	.	8a
4.G#	.	.	8b
.	.	.	8dd
.	.	.	8b
=10	=10	=10	=10
4.A	2.r	8a	8cc
.	.	8cc	8ee
.	.	8a	8cc
4.E	.	8b	8dd
.	.	8dd	8ff
.	.	8b	8dd
4.AA	8AA	4.cc	4.ee
.	8C	.	.
.	8AA	.	.
4.BB	8BB	4.b	4.dd
.	8D	.	.
.	8BB	.	.
=11	=11	=11	=11
4.C	8C	4.a	8cc
.	8E	.	8b
.	8C	.	8a
4.D	8D	4r	4.ff
.	8F	.	.
.	8D	8dd	.
8E	8E	8dd	8g#
8C	8C	8ee	8e
8D	8D	8cc	8a
8E	8E	4.b	8a
8D	8D	.	8b
8E	8E	.	8g#
=12	=12	=12	=12
4.AA	4.AA	4.a	4.a
4.A	4.A	4.r	2ff
4.B-	4.B-	[2.gg	.
.	.	.	8gg
.	.	.	8ff
4.c	4.c	.	8ee
.	.	.	8ff
.	.	.	8gg
=13	=13	=13	=13
4.F	4.F	8gg]	2..aa
.	.	8aa	.
.	.	8gg	.
4.f	4.f	8ff	.
.	.	8gg	.
.	.	8aa	.
4.d	4.d	[2.bb-	.
.	.	.	8bb-
.	.	.	8aa
4.e	4.e	.	8gg
.	.	.	8ff
.	.	.	8gg
=14	=14	=14	=14
4.f	4.f	8bb-]	8cc
.	.	8aa	8dd
.	.	8gg	8ee
4.F	4.F	8aa	2ff
.	.	8gg	.
.	.	8ff	.
4.c	4.c	2gg	.
.	.	.	8ee
.	.	.	8dd
4.c#	4.c#	.	[4.ee
.	.	8aa	.
.	.	8ee	.
=15	=15	=15	=15
4.d	4.d	2ff	4ee]
.	.	.	8a
4.D	4.D	.	2dd
.	.	8gg	.
.	.	8ff	.
4.A	4.A	2ee	.
.	.	.	8cc
.	.	.	8b-
4.AA	4.AA	.	[4.cc
.	.	8ff	.
.	.	8cc	.
=16	=16	=16	=16
2.BB-	2.BB-	2dd	4cc]
.	.	.	8f
.	.	.	2b-
.	.	8cc	.
.	.	8b-	.
2.FF	2.FF	[2cc	.
.	.	.	8a
.	.	.	8g
.	.	.	[4.a
.	.	8cc]	.
.	.	8f	.
=17	=17	=17	=17
2.GG	2.GG	2b-	4a]
.	.	.	8d
.	.	.	[2g
.	.	8cc	.
.	.	8b-	.
2.AA	2.AA	2a	.
.	.	.	8g]
.	.	.	8c
.	.	.	[4.f
.	.	8b-	.
.	.	8cc	.
=18	=18	=18	=18
4.BB-	4.BB-	8dd	4.f]
.	.	8b-	.
.	.	8a	.
4.C	4.C	4.g	4.e
4.F	4.F	4.f	4.f
4.E	4.E	4.r	4.r
=19	=19	=19	=19
4.D	4.D	2.r	8dd
.	.	.	8ff
.	.	.	8dd
4.C#	4.C#	.	8ee
.	.	.	8gg
.	.	.	8ee
4.D	4.D	8dd	4.ff
.	.	8ff	.
.	.	8dd	.
4.r	4.r	8ee	4.r
.	.	8gg	.
.	.	8ee	.
=20	=20	=20	=20
4.D	4.D	4.ff	8ff
.	.	.	8aa
.	.	.	8ff
4.C	4.C	4.r	8gg
.	.	.	8bb-
.	.	.	8gg
4.F	4.F	8ff	4.aa
.	.	8aa	.
.	.	8ff	.
4.r	4.r	8gg	4.r
.	.	8bb-	.
.	.	8gg	.
=21	=21	=21	=21
4.F	4.F	4.aa	8ccc
.	.	.	8aa
.	.	.	8bb-
4.F#	4.F#	4.a	8ccc
.	.	.	8ddd
.	.	.	8ccc
4.G	4.G	8dd	4.bb-
.	.	8ee	.
.	.	8dd	.
4.A	4.A	8cc#	[4.aa
.	.	8a	.
.	.	8cc#	.
=22	=22	=22	=22
2.B-	2.B-	8dd	8aa]
.	.	8ee	8gg
.	.	8ff	8ff
.	.	4ee	4.gg
.	.	8dd	.
8A	8A	4.cc#	4.aa
8B	8B	.	.
8c#	8c#	.	.
8A	8A	4.r	4.r
8B	8B	.	.
8c#	8c#	.	.
=23	=23	=23	=23
4.d	4.d	8dd	8ff
.	.	8ee	8gg
.	.	8ff	8aa
4.r	4.r	8dd	8ff
.	.	8ee	8gg
.	.	8ff	8aa
8G	8G	4.gg	4.bb-
8A	8A	.	.
8B-	8B-	.	.
8G	8G	4.r	4.r
8A	8A	.	.
8B-	8B-	.	.
=24	=24	=24	=24
4.c	4.c	8cc	8ee
.	.	8dd	8ff
.	.	8ee	8gg
4.r	4.r	8cc	8ee
.	.	8dd	8ff
.	.	8ee	8gg
8F	8F	4.ff	4.aa
8G	8G	.	.
8A	8A	.	.
8F	8F	4.r	4.r
8G	8G	.	.
8A	8A	.	.
=25	=25	=25	=25
4.B-	4.B-	8ff	8dd
.	.	8gg	8ee
.	.	8aa	8ff
4.G	4.G	4gg	4ee
.	.	8ff	8dd
4.A	4.A	4.ee	8cc#
.	.	.	8b
.	.	.	8a
4.F	8F	4.r	[4.aa
.	8G	.	.
.	8A	.	.
=26	=26	=26	=26
4.B-	8B-	2.dd	4.aa]
.	8A	.	.
.	8B-	.	.
4.E	8E	.	2.gg
.	8F	.	.
.	8G	.	.
4.A	8A	4.cc#	.
.	8G	.	.
.	8A	.	.
4.D	8D	4.aa	4.ff
.	8E	.	.
.	8F	.	.
=27	=27	=27	=27
4.G	4.G	4.gg	4.ee
4.GG	4.GG	4.ff	4.dd
4.AA	4.AA	4.ee	4.cc#
4.r	4.r	4.r	8aa
.	.	.	8ff
.	.	.	8aa
=28	=28	=28	=28
4.AA	4.AA	4.r	8gg
.	.	.	8ee
.	.	.	8gg
4.r	4.r	8aa	8ff
.	.	8ff	8dd
.	.	8aa	8ff
4.AA	4.AA	8gg	4.ee
.	.	8ee	.
.	.	8gg	.
4.r	4.r	8ff	8a
.	.	8dd	8f
.	.	8ff	8a
=29	=29	=29	=29
4.AA	4.AA	4.ee	8g
.	.	.	8e
.	.	.	8g
4.r	4.r	8a	8f
.	.	8f	8d
.	.	8a	8f
4.AA	4.AA	8g	4.e
.	.	8e	.
.	.	8g	.
4.r	4.r	8f	4.d
.	.	8d	.
.	.	8f	.
=30	=30	=30	=30
4.AA	4.AA	4.e	4.c#
4.F	8F	4.r	2.a
.	8A	.	.
.	8F	.	.
4.D	8D	2.b-	.
.	8F	.	.
.	8D	.	.
4.E	8E	.	[4.g
.	8G	.	.
.	8E	.	.
=31	=31	=31	=31
4.F	4.F	2.a	4.g]
4.A	8A	.	2.f
.	8c	.	.
.	8A	.	.
4.B	8B	2.g	.
.	8d	.	.
.	8B	.	.
4.c#	8c#	.	[4.e
.	8e	.	.
.	8c#	.	.
=32	=32	=32	=32
4.d	4.d	2.f	4.e]
4.D	8D	.	2.d
.	8E	.	.
.	8F	.	.
4.GG#	4.GG#	2.e	.
4.AA	4.AA	.	4.c#
=33	=33	=33	=33
2.DD	2.DD	2.d	2.d
2.r	2.r	2.r	2.r
==	==	==	==
*-	*-	*-	*-
!!!RWG: This file only contains pitch and duration data.
!!!RWG: Transposing instruments are not transposed.
!!!RWG: Durations of rests and tied notes may be interpreted.
!!!RWG: Key is interpreted using the Humdrum key tool.
!!!SCA: 
!!!YOR: Chrysander Edition
!!!AGN: chamber
!!!AFT: stage1
!!!ENC: F. Bennion
!!!END: 1997/04/15
!!!AST: baroque
!!!YEC: Copyright 1994, Center for Computer Assisted Research in the Humanities
!!!YEM: Rights to all derivative electronic formats reserved.
!!!YEM: Refer to licensing agreement for further details.
!!!YEN: United States of America
!!!EED: W.B. Hewlett
!!!KEY: 3824315298
!!!EMD: Converted from MuseData to Humdrum Aug 9, 1999, by Bret Aarden using muse2kern.
!!!VTS: 3917223070
